X: 21
T:Bucks of Oranmore, The
M:C|
R:reel
D:Stockton's Wing
Z:id:hn-reel-148
K:D
A2FA ~A2dB|ADFA BE~E2|1 A2FA ~A2Bd|egfd edBd:|2 ~D3F ADFA|defd efdB||
|:AD~D2 ADBD|ADFA BE~E2|1 AD~D2 ADFA|defd efdB:|2 ~D3F ADFA|defd edef||
|:a2fd efdf|a2fd edBd|1 a2fd efdf|gefd edBd:|2 fa~a2 bfaf|defd e2de||
|:f2df efde|f2df edBd|1 f2df efdf|gefd edBd:|2 fa~a2 bfaf|defd e2dB||
Adfd edfd|Adfd edBd|Adfd edef|gefd edBd|
Adfd Adfd|Adfd edBd|fa~a2 bfaf|defd e2dB||

